react/assets/forus-website/resources/_website-common/assets/img/unique-aspects/aspects-7-2.svg

<?xml version="1.0" encoding="UTF-8" standalone="no"?>
<svg
   width="74.864998"
   height="102.1822"
   viewBox="0 0 74.864998 102.1822"
   fill="none"
   version="1.1"
   id="svg48"
   sodipodi:docname="aspects-7-2.svg"
   inkscape:version="1.1.2 (0a00cf5339, 2022-02-04)"
   xmlns:inkscape="http://www.inkscape.org/namespaces/inkscape"
   xmlns:sodipodi="http://sodipodi.sourceforge.net/DTD/sodipodi-0.dtd"
   xmlns="http://www.w3.org/2000/svg"
   xmlns:svg="http://www.w3.org/2000/svg">
  <sodipodi:namedview
     id="namedview50"
     pagecolor="#ffffff"
     bordercolor="#666666"
     borderopacity="1.0"
     inkscape:pageshadow="2"
     inkscape:pageopacity="0.0"
     inkscape:pagecheckerboard="0"
     showgrid="false"
     fit-margin-top="0"
     fit-margin-left="0"
     fit-margin-right="0"
     fit-margin-bottom="0"
     inkscape:zoom="1.4077181"
     inkscape:cx="-53.988081"
     inkscape:cy="132.48391"
     inkscape:window-width="1920"
     inkscape:window-height="1017"
     inkscape:window-x="0"
     inkscape:window-y="0"
     inkscape:window-maximized="1"
     inkscape:current-layer="File" />
  <g
     id="File"
     filter="url(#filter0_dd_2318_28055)"
     transform="translate(-98,-61.3118)">
    <path
       id="Vector"
       d="m 98,67.6992 v 89.4098 c 0,3.512 2.873,6.385 6.385,6.385 h 62.092 c 3.513,0 6.388,-2.874 6.388,-6.387 V 84.8328 c 0,-1.9609 -0.779,-3.8415 -2.166,-5.2281 L 154.572,63.4772 c -1.387,-1.3864 -3.267,-2.1654 -5.228,-2.1654 h -44.957 c -3.513,0 -6.387,2.8743 -6.387,6.3874 z"
       fill="#39b924" />
    <path
       id="Vector_2"
       d="m 154.574,63.4829 c -0.95,-0.9497 -2.132,-1.6141 -3.412,-1.9387 v 20.8216 l 21.705,21.7052 V 84.8382 c 0,-1.9609 -0.779,-3.8414 -2.166,-5.2281 z"
       fill="url(#paint0_linear_2318_28055)"
       style="fill:url(#paint0_linear_2318_28055)" />
    <path
       id="Vector_3"
       d="m 172.638,83.0457 c 0.024,0.1026 0.046,0.2026 0.066,0.299 h -19.565 c -1.385,0 -2.508,-1.123 -2.508,-2.5085 V 61.4347 c 0.153,0.0273 0.313,0.0591 0.479,0.0958 1.458,0.3226 2.788,1.0725 3.845,2.1286 l 15.558,15.5588 c 1.052,1.0521 1.791,2.3782 2.125,3.8278 z"
       fill="#c0ef5e" />
    <g
       id="Table">
      <g
         id="Group 48097989">
        <path
           id="Vector_4"
           d="m 113.033,131.352 h 19.88 c 0.793,0 1.436,-0.598 1.436,-1.334 v -5.51 c 0,-0.737 -0.643,-1.334 -1.436,-1.334 h -19.88 c -0.793,0 -1.435,0.597 -1.435,1.334 v 5.51 c 0,0.736 0.642,1.334 1.435,1.334 z"
           fill="#ffffff" />
        <path
           id="Vector_5"
           d="m 138.279,131.373 h 19.88 c 0.793,0 1.436,-0.598 1.436,-1.334 v -5.51 c 0,-0.737 -0.643,-1.334 -1.436,-1.334 h -19.88 c -0.792,0 -1.435,0.597 -1.435,1.334 v 5.51 c 0,0.736 0.643,1.334 1.435,1.334 z"
           fill="#ffffff" />
      </g>
      <g
         id="Group 48097990">
        <path
           id="Vector_6"
           d="m 112.824,118.596 h 19.88 c 0.793,0 1.436,-0.597 1.436,-1.334 v -5.51 c 0,-0.737 -0.643,-1.334 -1.436,-1.334 h -19.88 c -0.793,0 -1.435,0.597 -1.435,1.334 v 5.51 c 0,0.737 0.642,1.334 1.435,1.334 z"
           fill="#ffffff" />
        <path
           id="Vector_7"
           d="m 138.07,118.629 h 19.88 c 0.793,0 1.436,-0.598 1.436,-1.334 v -5.51 c 0,-0.737 -0.643,-1.334 -1.436,-1.334 h -19.88 c -0.792,0 -1.435,0.597 -1.435,1.334 v 5.51 c 0,0.736 0.643,1.334 1.435,1.334 z"
           fill="#ffffff" />
      </g>
      <g
         id="Group 48097991">
        <path
           id="Vector_8"
           d="m 112.82,105.813 h 19.88 c 0.793,0 1.436,-0.598 1.436,-1.334 v -5.5103 c 0,-0.7367 -0.643,-1.334 -1.436,-1.334 h -19.88 c -0.792,0 -1.435,0.5973 -1.435,1.334 v 5.5103 c 0,0.736 0.643,1.334 1.435,1.334 z"
           fill="#ffffff" />
        <path
           id="Vector_9"
           d="m 138.066,105.845 h 19.88 c 0.793,0 1.436,-0.597 1.436,-1.334 v -5.5097 c 0,-0.7367 -0.643,-1.3339 -1.436,-1.3339 h -19.88 c -0.792,0 -1.435,0.5972 -1.435,1.3339 v 5.5097 c 0,0.737 0.643,1.334 1.435,1.334 z"
           fill="#ffffff" />
      </g>
    </g>
  </g>
  <defs
     id="defs46">
    <filter
       id="filter0_dd_2318_28055"
       x="0.222221"
       y="0.200657"
       width="270.423"
       height="297.73801"
       filterUnits="userSpaceOnUse"
       color-interpolation-filters="sRGB">
      <feFlood
         flood-opacity="0"
         result="BackgroundImageFix"
         id="feFlood16" />
      <feColorMatrix
         in="SourceAlpha"
         type="matrix"
         values="0 0 0 0 0 0 0 0 0 0 0 0 0 0 0 0 0 0 127 0"
         result="hardAlpha"
         id="feColorMatrix18" />
      <feOffset
         dy="36.6667"
         id="feOffset20" />
      <feGaussianBlur
         stdDeviation="48.8889"
         id="feGaussianBlur22" />
      <feColorMatrix
         type="matrix"
         values="0 0 0 0 0.654046 0 0 0 0 0.683294 0 0 0 0 0.786637 0 0 0 0.1 0"
         id="feColorMatrix24" />
      <feBlend
         mode="multiply"
         in2="BackgroundImageFix"
         result="effect1_dropShadow_2318_28055"
         id="feBlend26" />
      <feColorMatrix
         in="SourceAlpha"
         type="matrix"
         values="0 0 0 0 0 0 0 0 0 0 0 0 0 0 0 0 0 0 127 0"
         result="hardAlpha"
         id="feColorMatrix28" />
      <feOffset
         dy="24.4444"
         id="feOffset30" />
      <feGaussianBlur
         stdDeviation="33.6111"
         id="feGaussianBlur32" />
      <feColorMatrix
         type="matrix"
         values="0 0 0 0 0.45098 0 0 0 0 0.469804 0 0 0 0 0.568627 0 0 0 0.18 0"
         id="feColorMatrix34" />
      <feBlend
         mode="normal"
         in2="effect1_dropShadow_2318_28055"
         result="effect2_dropShadow_2318_28055"
         id="feBlend36" />
      <feBlend
         mode="normal"
         in="SourceGraphic"
         in2="effect2_dropShadow_2318_28055"
         result="shape"
         id="feBlend38" />
    </filter>
    <linearGradient
       id="paint0_linear_2318_28055"
       x1="166.50999"
       y1="96.125198"
       x2="158.797"
       y2="73.584999"
       gradientUnits="userSpaceOnUse">
      <stop
         stop-opacity="0"
         id="stop41" />
      <stop
         offset="1"
         stop-opacity="0.2"
         id="stop43" />
    </linearGradient>
  </defs>
</svg>

<svg width="271" height="298" viewBox="0 0 271 298" fill="none" xmlns="http://www.w3.org/2000/svg">
<g id="File" filter="url(#filter0_dd_2318_28055)">
<path id="Vector" d="M98 67.6992V157.109C98 160.621 100.873 163.494 104.385 163.494H166.477C169.99 163.494 172.865 160.62 172.865 157.107V84.8328C172.865 82.8719 172.086 80.9913 170.699 79.6047L154.572 63.4772C153.185 62.0908 151.305 61.3118 149.344 61.3118H104.387C100.874 61.3118 98 64.1861 98 67.6992Z" fill="#39B924"/>
<path id="Vector_2" d="M154.574 63.4829C153.624 62.5332 152.442 61.8688 151.162 61.5442V82.3658L172.867 104.071V84.8382C172.867 82.8773 172.088 80.9968 170.701 79.6101L154.574 63.4829Z" fill="url(#paint0_linear_2318_28055)"/>
<path id="Vector_3" d="M172.638 83.0457C172.662 83.1483 172.684 83.2483 172.704 83.3447H153.139C151.754 83.3447 150.631 82.2217 150.631 80.8362V61.4347C150.784 61.462 150.944 61.4938 151.11 61.5305C152.568 61.8531 153.898 62.603 154.955 63.6591L170.513 79.2179C171.565 80.27 172.304 81.5961 172.638 83.0457Z" fill="#C0EF5E"/>
<g id="Table">
<g id="Group 48097989">
<path id="Vector_4" d="M113.033 131.352H132.913C133.706 131.352 134.349 130.754 134.349 130.018V124.508C134.349 123.771 133.706 123.174 132.913 123.174H113.033C112.24 123.174 111.598 123.771 111.598 124.508V130.018C111.598 130.754 112.24 131.352 113.033 131.352Z" fill="white"/>
<path id="Vector_5" d="M138.279 131.373H158.159C158.952 131.373 159.595 130.775 159.595 130.039V124.529C159.595 123.792 158.952 123.195 158.159 123.195H138.279C137.487 123.195 136.844 123.792 136.844 124.529V130.039C136.844 130.775 137.487 131.373 138.279 131.373Z" fill="white"/>
</g>
<g id="Group 48097990">
<path id="Vector_6" d="M112.824 118.596H132.704C133.497 118.596 134.14 117.999 134.14 117.262V111.752C134.14 111.015 133.497 110.418 132.704 110.418H112.824C112.031 110.418 111.389 111.015 111.389 111.752V117.262C111.389 117.999 112.031 118.596 112.824 118.596Z" fill="white"/>
<path id="Vector_7" d="M138.07 118.629H157.95C158.743 118.629 159.386 118.031 159.386 117.295V111.785C159.386 111.048 158.743 110.451 157.95 110.451H138.07C137.278 110.451 136.635 111.048 136.635 111.785V117.295C136.635 118.031 137.278 118.629 138.07 118.629Z" fill="white"/>
</g>
<g id="Group 48097991">
<path id="Vector_8" d="M112.82 105.813H132.7C133.493 105.813 134.136 105.215 134.136 104.479V98.9687C134.136 98.232 133.493 97.6347 132.7 97.6347H112.82C112.028 97.6347 111.385 98.232 111.385 98.9687V104.479C111.385 105.215 112.028 105.813 112.82 105.813Z" fill="white"/>
<path id="Vector_9" d="M138.066 105.845H157.946C158.739 105.845 159.382 105.248 159.382 104.511V99.0013C159.382 98.2646 158.739 97.6674 157.946 97.6674H138.066C137.274 97.6674 136.631 98.2646 136.631 99.0013V104.511C136.631 105.248 137.274 105.845 138.066 105.845Z" fill="white"/>
</g>
</g>
</g>
<defs>
<filter id="filter0_dd_2318_28055" x="0.222221" y="0.200657" width="270.423" height="297.738" filterUnits="userSpaceOnUse" color-interpolation-filters="sRGB">
<feFlood flood-opacity="0" result="BackgroundImageFix"/>
<feColorMatrix in="SourceAlpha" type="matrix" values="0 0 0 0 0 0 0 0 0 0 0 0 0 0 0 0 0 0 127 0" result="hardAlpha"/>
<feOffset dy="36.6667"/>
<feGaussianBlur stdDeviation="48.8889"/>
<feColorMatrix type="matrix" values="0 0 0 0 0.654046 0 0 0 0 0.683294 0 0 0 0 0.786637 0 0 0 0.1 0"/>
<feBlend mode="multiply" in2="BackgroundImageFix" result="effect1_dropShadow_2318_28055"/>
<feColorMatrix in="SourceAlpha" type="matrix" values="0 0 0 0 0 0 0 0 0 0 0 0 0 0 0 0 0 0 127 0" result="hardAlpha"/>
<feOffset dy="24.4444"/>
<feGaussianBlur stdDeviation="33.6111"/>
<feColorMatrix type="matrix" values="0 0 0 0 0.45098 0 0 0 0 0.469804 0 0 0 0 0.568627 0 0 0 0.18 0"/>
<feBlend mode="normal" in2="effect1_dropShadow_2318_28055" result="effect2_dropShadow_2318_28055"/>
<feBlend mode="normal" in="SourceGraphic" in2="effect2_dropShadow_2318_28055" result="shape"/>
</filter>
<linearGradient id="paint0_linear_2318_28055" x1="166.51" y1="96.1252" x2="158.797" y2="73.585" gradientUnits="userSpaceOnUse">
<stop stop-opacity="0"/>
<stop offset="1" stop-opacity="0.2"/>
</linearGradient>
</defs>
</svg>
